X: 1
T: Paddy Fahey's
R: reel
M: 4/4
L: 1/8
K: Ddor
|:D2A,D FEFG|Addc d2de|fedf edcA|dcAG FDCD|
D2A,D FEFG|Addc d2de|f2gf edcA|dcAG FDD2:|
|:d2 e daded|c2Gc EcGc|d2 e daded|cBcd edcA|
a2^ga ABcA|dcAG FDCE|D2DE FEFG|Addc d2de:|


Tune 463	Setting 13347

